X:1
T:Poi che senti
T:Poi che senti
T:Gio.Girolamo Kapsperger
C:Gio.Girolamo Kapsperger
%%score [ 1 2 ] { ( 3 5 ) | 4 }
L:1/8
Q:1/4=120
M:4/4
K:F
V:1 treble-8 nm="Tenor 1" snm="T 1"
V:2 treble-8 nm="Tenor 2" snm="T 2"
V:3 treble nm="BC" snm="BC"
V:5 treble 
V:4 bass 
V:1
 A2 B2 cBcd | c2 A2 B2 G2 | AGAB A4 | A4 d4- | d2 ^c=B c4 | d4 z2 AB | cABc d2 c2 |: f6 _e2- | %8
w: Poi che sen- * * *|* t'il mio do-|lo- * * * *|re, Flo-|* ra gra- di-|ta, al mio|no- vo'e gra- to'ar- do- re.|Deh por-|
w: Es io can- * * *|* to'in- que- sta|ri- * * * *|va, col|_ cien se- re-|no, la tua|lu- ce'u- ni- ca'e di- va.|Deh sco-|
w: Che si lie- * * *|* to'il mio sog-|gior- * * * *|no, non|_ fai mio be-|ne, pria- che|piu ri- schia- r'il gior- no.|Deh quan-|
w: Dun- que'a trar _ _ _|_ spas- so'e di-|let- * * * *|to, del|_ no- stro'a- mo-|re, Flo- ra|sfor- za'il dub- bio pet- to.|Deh sfor-|
 e2 d2 c4 | B4 Bf_ed | _edc d2 B c2 | B2 gf _efed | _e3 c d2 c2 | f6 _ee | d4 c4 | z8 | z4 z2 g2 | %17
w: * gia- i-|ta, pri- a che ri-|den- te dal o- ri- en-|te, pria- che ri- den- te dal|o- ri- en- te,|spon- ti l'au-|ro- ra,||ch'i|
w: * pri'al me-|no, pri- a che di|ge- lo de- lia dal cie-|lo, pria che di ge- lo de-|lia dal cie- lo,|tin- ta di|scor- no,||sam-|
w: * te pe-|ne, tut- ta la gio-|ia ri- vol- ta in no-|ia tut- ta la gio- ia ri-|vol- ta'in no- ia,|por- te- ra|se- co,||que-|
w: * za'il co-|re, che co- si li-|e- to d'A- mor se- cre-|to, che co- si lie- to d'A-|mor se- cre- to,|fe- li- ce'a-|man- ti,||vol-|
 d3 f (f2 e2) | f6 c2 | dcdB c3 G | ABcF G4 | F8 :| %22
w: mon- t'in- do- *|ra, chi|mon- * * * * t'in-|do- * * * *|ra.|
w: bru- ni'al gior- *|no, sam-|bru- * * * * ni'al|gior- * * * *|no.|
w: sto aer cie- *|co, que-|sto _ _ _ _ aer|cie- * * * *|co.|
w: go le pian- *|te, vol-|go _ _ _ _ le|pian- * * * *|te.|
V:2
 F2 G2 AGAB | A2 F2 G2 E2 | FEFG F4 | F2 F4 ED | E8 | D4 z2 FG | AFGA B2 A2 |: z4 d4 | GA B4 A2 | %9
w: Poi che sen- * * *|* t'il mio do-|lo- * * * *|re, Flo- ra gra-|di-|ta, al mio|no- vo'e gra- to'ar- do- re.|Deh|por- gia- i- *|
w: Es io can- * * *|* to'in que- sta|ri- * * * *|va, col ciel se-|re-|no, la tua|lu- ce'u- ni- ca'e di- va,|Deh|sc- pri'al me- *|
w: Che si lie- * * *|* to'il mio sog-|gior- * * * *|no non fai mio|be-|ne, pria che|piu ri schia- r'il gior- no.|Deh|quan- te pe- *|
w: Dun- que'a trar _ _ _|_ spas- so'e di-|let- * * * *|to, del no- stro'a-|mo-|re, Flo- ra|sfor- za'il dob- bio pet- to.|Deh|sfor- za'il co- *|
 B8 | cBAB AGAF | G_E_ed cdcB | c3 A B2 F2 | z8 | z8 | d6 BB | A4 G4 | z8 | z4 z2 A2 | BABG A3 E | %20
w: ta,|pria- che ri- den- te dal o- ri-|en- te, pria che ri- den- te dal|o- ri- en- te,|||spon- ti l'au-|ro- ra,||chi|mon- * * * * t'in-|
w: no,|pria che di ge- lo de- lia dal|cie- lo, pria che di ge- lo de-|lia dal ci- lo,|||tin- ta di|scor- no,||chi|bru- * * * * ni'al|
w: ne,|tut- ta la gio- ia ri- vol- 'il|no- ia, tut- ta la gio- ia ri-|vol- ta'in no- ia,|||por- te- ra|se- co,||que-|sto _ _ _ _ aer|
w: re|che co- si li- to d'A- mor se-|cre- to, che co- si lie- to 'A-|mor se- cre- to,|||fe- li- ce'a-|man- ti,||vol-|go _ _ _ _ le|
 FGAD E F2 E | F8 :| %22
w: do- * * * * * *|ra.|
w: gior- * * * * * *|no|
w: cie- * * * * * *|co.|
w: pian- * * * * * *|te.|
V:3
 [FAc]8- | [FAc]4 [DF]2 [EG]2 | [Ac]8- | [Ac]4 [Fd]4 | d2 ^c=B c4 | [Fd]4 [Ac]4 | %6
 [FA]2 [GB]2 [Fd]2 [Ac]2 |: [DF]6 [_E-G]2 | G2 d2 c4 | [Fd]8 | [G_e]3 [Fd]3 A2 | %11
 [GB]4 [Gc]2 [FAd]2 | [G_e]3 [FA] [DF]2 [CA]2 | [Ac]4 c4 | x8 | [DB]6 G2 | [^FA]4 [D=B]4 | %17
 d4 [Ge]4 | [FAc]8 | [Fd]4 [Ac]2 [EG]2 | [Ac]4 [Gc]4 | [FAc]8 :| %22
V:4
 F,8 | F,4 B,,2 C,2 | F,,8 | F,,8 | [A,,E,]8 | D,4 F,4 | F,2 _E,2 B,,2 F,2 |: B,,6 C,2- | %8
"^b" C,2 D,E, F,4 | B,,8 | C,3 B,,3 F,2 | _E,4 E, D,2 D, | C,4 B,,2 F,2 | F,4 G,3 ^F, | G,4 C,4 | %15
 G,,4 B,,3 C, | D,4 G,,4 | B,,4 C,4 | F,,8 | B,,4 F,2 C,2 | F,,4 C,4 | F,,8 :| %22
V:5
 x8 | x8 | x8 | x8 | x8 | x8 | x8 |: x8 | E2 B4 A2 | x8 | x8 | x8 | x8 | F4 EG A2 | [D=B]4 [EG]4 | %15
 x8 | x8 | F6 E2 | x8 | x8 | F4 E F2 E | x8 :| %22

